X: 27456
T: Molly Eamonn Mor
R: reel
M: 4/4
K: Dminor
e|:dA (3AAA FADE|FEFG AdcB|cE (3EEE CEGc|eage f2ef|
dA (3AAA FADE|FEFG AdcB|cege fedf|eage fdde:|
|:fA (3AAA FAde|fefa gefd|ec (3ccc GcEF|GCEG cdeg|
fd (3ddd Adde|fefg afgf|ecGc efge|fedc Adde:|

